X:01
T: A Mile To Ride
M: 9/8
L: 1/8
R: slip jig
S: William Vickers (1770)
K: G
dBd g2g f2d|g2B BcB d2e|dBd g2g f2d|ecA ABA c2e:|
|:dBG G2c B2c|dBG GAB c2e|dBG GAB dBG|ecA ABA c2e:|
T: My Laddie Sits Ower Late Up
R: slip jig
M: 9/8
L: 1/8
K: G
|:e| dBG BdB G2 e| dBG BdB A2 e|
dBG BdB GAB|c>d/e/f/ gdB A2:|
|:g| fef gdB G2 g| fef gdB A2 g|
fef gdB GAB |c>d/e/f/ gdB A2:|
T: Richard the Rogue
M: 9/8
L: 1/8
K: Gmix
|:Bcd G2e dBG|Bcd G2d e2d|Bcd G2e dBG|AAA ABd e2d:||
|:g3 g2e dBG|g2g g2d e2d|g2d efg dBG|AAA ABd e2d:||
